!!!COM: Bach, Johann Sebastian
!!!CDT: 1685/3//-1750/7/28/
!!!OTL@@DE: Aus meines Herzens Grunde
!!!OTL@EN:  From the depths of my heart
!!!AGN: 4-Part Chorale
!!!SCT: BH 001
!!!SCT: BWV 269
**harm	**root	**kern	**kern	**kern	**kern
!	!	!bass	!tenor	!alto	!sprno
*	*Iorgan	*Iorgan	*Iorgan	*Iorgan	*Iorgan
*	*	*clefF4	*clefF4	*clefG2	*clefG2
*k[b-]	*k[b-]	*k[b-]	*k[b-]	*k[b-]	*k[b-]
*F:	*F:	*F:	*F:	*F:	*F:
*M3/4	*M3/4	*M3/4	*M3/4	*M3/4	*M3/4
*MM60	*MM60	*MM60	*MM60	*MM60	*MM60
*>[A,A,B]	*>[A,A,B]	*>[A,A,B]	*>[A,A,B]	*>[A,A,B]	*>[A,A,B]
*>A	*>A	*>A	*>A	*>A	*>A
I	4GG	4FF	4A	4c	4f
=1	=1	=1	=1	=1	=1
I	4GG	4F	4A	4c	2f
IVb[vi]	4EE	4D	8B-	4d	.
.	.	.	8A	.	.
Vb	4DD	4E	4G	4c	4cc
=2	=2	=2	=2	=2	=2
I	4GG	4F	4F	2c	4.a
V	4DD	4C	4E	.	.
.	.	.	.	.	8g
vi	4EE	4D	4F	4A	4f
=3	=3	=3	=3	=3	=3
IV	4CC	4BB-	8B-	8d	4.f
.	.	.	8A	8c	.
IV7d	8CC	8AA	4B-	8d	.
viiob	8FF#	8GG	.	8e	8g
I	4GG	4FF	4c	4f	4a
=4	=4	=4	=4	=4	=4
V;	2DD;	2C;	2c;	2e;	2g;
I	4GG	4FF	4c	4f	4a
=5	=5	=5	=5	=5	=5
Vb	4DD	4EE	4G	4c	2cc
vi7b	4EE	4FF	4A	4d	.
viiob	4FF#	4GG	4B-	4e	4b-
=6	=6	=6	=6	=6	=6
Ib	4GG	4AA	4c	2f	4a
ii7b	4AA	4BB-	4d	.	2g
V7	4DD	4C	8c	4e	.
.	.	.	8B-	.	.
=7	=7	=7	=7	=7	=7
I;	2GG;	2FF;	2A;	2c;	2f;
=:|!	=:|!	=:|!	=:|!	=:|!	=:|!
*>B	*>B	*>B	*>B	*>B	*>B
I	4GG	4FF	4c	[4f	4a
=8	=8	=8	=8	=8	=8
I	4GG	4FF	4c	8f]	4a
.	.	.	.	8e	.
ii	4AA	4GG	4B-	8d	4b-
.	.	.	.	8e	.
Ib	4GG	4AA	8A	[4f	4cc
.	.	.	8G	.	.
=9	=9	=9	=9	=9	=9
Ib	4.GG	4.AA	8A	8f]	4.cc
.	.	.	8B-	8g	.
.	.	.	4c	8f	.
V7c	8DD	8GG	.	8e	8b-
I	4GG	4FF	4c	4f	4a
!!linebreak: 2
=10	=10	=10	=10	=10	=10
V;	2DD;	2C;	2c;	2e;	2g;
vi	4EE	[4D	4A	4d	4f
=11	=11	=11	=11	=11	=11
vi	4EE	4D]	4F	4d	2a
iiib[Ic]	4BB	4C	4A	8e	.
.	.	.	.	8f	.
iib	4AA	4BB-	4d	4g	4b-
=12	=12	=12	=12	=12	=12
Ib	2GG	4.AA	2c	4g	2cc
.	.	.	.	4.f	.
.	.	8BB-	.	.	.
V7	4DD	4C	4c	.	4b-
.	.	.	.	8e	.
=13	=13	=13	=13	=13	=13
I	4GG	8FF	2.c	2f	2.a
.	.	8GG	.	.	.
Ib	4GG	4AA	.	.	.
V7/IV	4GG	4FF	.	4e-	.
=14	=14	=14	=14	=14	=14
IV;	2CC;	2BB-;	2B-;	2d;	2f;
I	4GG	4FF	4c	4f	4a
=15	=15	=15	=15	=15	=15
Vb	4DD	4EE	8c	4.g	2cc
.	.	.	8B-	.	.
I	4GG	4FF	4A	.	.
.	.	.	.	8f	.
viiob	4FF#	4GG	4B-	4e	4b-
=16	=16	=16	=16	=16	=16
I	2GG	4AA	2c	2f	2a
.	.	4FF	.	.	.
V	4DD	4C	8c	[4e	4g
.	.	.	8B-	.	.
=17	=17	=17	=17	=17	=17
vi	4EE	8D	4A	8e]	4.f
.	.	8C	.	8d	.
IV	8CC	8BB-	4B-	8d	.
viio7d	8FF#	8AA	.	8e	8g
I	4GG	8GG	4c	4f	4a
.	.	8FF	.	.	.
=18	=18	=18	=18	=18	=18
V;	2DD;	2C;	2c;	2e;	2g;
I	4GG	[4F	4c	4f	4a
=19	=19	=19	=19	=19	=19
Vb	2DD	4F]	2c	2g	2cc
.	.	4E	.	.	.
IVb	4CC	[4D	4d	8f	4b-
.	.	.	.	8e	.
=20	=20	=20	=20	=20	=20
vi	4EE	8D]	2d	2f	4a
.	.	8C	.	.	.
ii7b	4AA	4BB-	.	.	2g
V7	4DD	4C	8c	4e	.
.	.	.	8B-	.	.
=21	=21	=21	=21	=21	=21
I;	2GG;	2FF;	2A;	2c;	2f;
==	==	==	==	==	==
*-	*-	*-	*-	*-	*-
!!chor2scor: -l 2 -s 0.6 -o %b.pmx
!!!ONB1: Text by Georg Niege; 16th Century secular melody, first appears 
!!!ONB2: in sacred use in Neu Catechismus-Gesangbüchlein, Hamburg, 1598. 
!!!YEC: Copyright 2001 by Craig Stuart Sapp
!!!license: GNU General Public License (http://www.gnu.org/copyleft/gpl.html)
!!!SMA: 371 Bach Chorales, edited by Ludwig Erk, C.F. Peters
!!!PDT: 1850, 1865
!!!ONB: Harmony and Root analysis done manually by Craig Sapp
!! Beat 2 of measure 1 chord could also be IVb (with root on C)
